X:268
T:His Gifts
%%stretchlast false
M:4/4
L:1/4
K:F clef=C1
"^V"[C,E,G,C]/ [C,E,G,C]/ "^I²"[C,A,F] "^I¹"[A,,F,A,F]/ "^V²"[G,,E,CG]/ "^I¹"[A,,C,FA]/ "^IV"[B,,D,F]/ | "^I²"[C,F,CA]/ "^IV"[B,,B,DB]/ "^V"[C,G,Ec] [C,E,Gc]/ [C,G,Ec]/ "^I¹"[A,,F,CA] | "^V"[C,G,EG]/ "^IV"[B,,F,DF]/ "^V"[C,E,CG] [C,EG] "^v"[G,,G,CG] | "^V²"[G,,E,CG] "^V"[C,G,EG]/ "^I²"[C,A,FA]/ "^V"[C,G,EG]/ "^V¹"[E,CE]/ "^V"[C,E,G,C] | "^I²"[C,F,A,C] "^IV¹"[D,F,B,F]/ "^V¹"[E,G,CE]/ "^IV"[B,,F,DF]/ "^V"[C,G,EG]/ "^I²"[C,F,FA] | "^V"[C,E,EG]/ [C,G,EG]/ "^I²"[C,A,FA] "^IV"[B,,F,DB] "^V"[C,G,Ec] | "^iv"[B,,F,FB]/ "^I¹"[A,,C,FA]/ "^V²"[G,,C,EG] "^vii¹"[G,,E,EG]/ "^iii"[A,,E,EA]/ "^V"[C,E,CG] | "^IV"[B,,F,DF]/ "^I¹"[A,,F,CF]/ "^V²"[G,,E,CG] "^IV"[B,,F,DF]/ "^V"[C,E,CE]/ "^I¹"[A,,F,CF]2 | "^V²"[G,,G,Ec]2 "^I¹"[A,,C,FA]3/2 | "^V²"[G,,C,EG]/ "^I¹"[A,,C,FA]/ "^IV"[B,,D,DB]/ "^I¹"[A,,C,FA]/ "^V"[C,E,EG]/ "^IV"[B,,D,DF]3/2 | "^V"[C,E,CG]/ "^I¹"[A,,F,CA] [A,,C,FA]/ "^IV"[B,,D,FB]/ "^V"[C,E,Gc] | "^IV"[B,,D,FB]/ "^I²"[C,F,CA]/ "^V"[C,E,EG] "^V¹"[E,CG]/ "^I"[F,A,CA]/ "^V¹"[E,G,CG] | "^iii¹"[C,A,C] "^IV¹"[D,F,B,F]2 "^I²"[C,F,A,F]3/2 | "^V¹"[E,G,CG]/ "^I²"[C,F,CA]/ "^v"[C,G,CG]/ "^I²"[C,F,A,A]/ "^IV"[B,,D,FB]/ "^V"[C,E,Ec] | "^IV"[B,,F,DB]/ "^I¹"[A,,F,CA]/ "^V²"[G,,E,CG] "^vii¹"[G,,E,EG] "^I¹"[A,,C,FA] | [A,,C,FA]/ "^vii¹"[G,,E,EG]/ "^IV"[B,,F,DF] "^I¹"[A,,F,CF] [A,,F,CF] |]
